icons/1_Primary/Fly.io.svg

<svg width="1024" height="1024" fill="none" xmlns="http://www.w3.org/2000/svg"><g clip-path="url(#a)"><path d="M512 1024c282.77 0 512-229.23 512-512S794.77 0 512 0 0 229.23 0 512s229.23 512 512 512Z" fill="#54688C"/><path d="M508.51 259.09h-.26a37.076 37.076 0 0 0-16.52 5.82c-7.64 4.91-13.47 12.24-17.77 20.2a69.104 69.104 0 0 0-2 4.05 99.688 99.688 0 0 0-4.46 11.62 112.766 112.766 0 0 0-2.26 8.35c-.813 3.54-1.48 7.11-2 10.71a169.618 169.618 0 0 0-1.44 13.77c-.18 2.926-.297 5.857-.35 8.79-.087 3.373-.023 6.743.19 10.11a153.15 153.15 0 0 0 3.66 23.38 272.533 272.533 0 0 0 8.37 28.61 441.542 441.542 0 0 0 13.88 34.75 617.174 617.174 0 0 0 20.45 41.5l.55 1-.04-222.66Zm28.62.59 2.78 2c8.28 6.51 14.4 15.44 18.78 25a100.809 100.809 0 0 1 4.73 12.51 149.99 149.99 0 0 1 5.91 34.72c.173 2.92.28 5.84.32 8.76.124 4.783-.06 9.57-.55 14.33a159.28 159.28 0 0 1-2.71 17c-1.39 6.55-3.09 13-5 19.43-2.58 8.553-5.487 17-8.72 25.34a491.424 491.424 0 0 1-9.34 22.53 622.083 622.083 0 0 1-19.24 39.35 604.986 604.986 0 0 0 29.21-32.37 431.546 431.546 0 0 0 24.36-31.79 258.16 258.16 0 0 0 16.89-27.79 161.546 161.546 0 0 0 6.16-13.31 111.527 111.527 0 0 0 3.88-11.14 72.388 72.388 0 0 0 2.69-14.15c.154-2.143.197-4.293.13-6.44-.047-2.307-.163-4.61-.35-6.91a93.107 93.107 0 0 0-5.73-25.69 78.117 78.117 0 0 0-29.47-37A91.608 91.608 0 0 0 552.1 264l-14.97-4.32Zm-195.86 43.84A100.817 100.817 0 0 0 240.5 404.29v219.85a100.59 100.59 0 0 0 36.92 77.94c8.72 1 22.18 4 42.51-12.53L421 600.65a11.172 11.172 0 0 1 14.07 0l72.74 59.81 25.83-21.23a11.172 11.172 0 0 1 14.07 0l79.5 65.36c9.59 7.26 22 15.84 50.63 20.32h4.92A100.82 100.82 0 0 0 783.5 624.14V404.29a100.82 100.82 0 0 0-100.77-100.77h-62.52l1.18 3 .9 2.66 2.63 9.59c.05.171.09.344.12.52l2.05 13 .41 4.5.33 5.79v1.2l-.12 6.47-.11 1.72-.35 2.79-1.77 10.24-.43 1.89-4.16 13c-.04.127-.087.25-.14.37l-3.86 9.35-.14.31L611.7 400l-8.82 15.36-4.68 7.16-5.62 8.4-4 5.43-7.85 10.49-5.34 6.72-7.9 9.62-5.49 6.48-8.51 9.58-5.48 6-15.83 16.53-3.68 3.64 2.17 1.85a96.386 96.386 0 0 1 8.65 9.06c.807.98 1.587 1.98 2.34 3a68.779 68.779 0 0 1 2.32 3.36 53.74 53.74 0 0 1 2.12 3.65 41.84 41.84 0 0 1 1.88 4.09 36.45 36.45 0 0 1 2.44 10l.14 2.6a37.4 37.4 0 0 1-2.68 14.54 36.001 36.001 0 0 1-11.31 15 37.561 37.561 0 0 1-5.61 3.62 40.16 40.16 0 0 1-14.68 4.36 42.53 42.53 0 0 1-9.28-.08 41.003 41.003 0 0 1-8.52-1.94 38.547 38.547 0 0 1-7.54-3.56 36.675 36.675 0 0 1-7.57-6.17 35.998 35.998 0 0 1-7.18-11.26 37.414 37.414 0 0 1-2.66-12.91v-3.14a36.207 36.207 0 0 1 2.33-10.62 42.173 42.173 0 0 1 1.73-3.91 54.845 54.845 0 0 1 4.31-7 70.095 70.095 0 0 1 3.33-4.26 98.63 98.63 0 0 1 7.75-8.1l1-.91 1.61-1.35-8-8-4.86-5-12.29-13.22-3.06-3.35-14.91-17.43-4.22-5.23-13.06-17-1.45-2-10-14.78-2.75-4.45-7.19-12.34-2.2-4-6.22-13.13-1.17-3-3.58-10-1.37-4.75-1.06-4.39-.89-4.76-.7-5.29-.28-3.38-.12-5.77v-1.21l.17-3.45 1.24-12.58.39-2.21 2.78-12.61.66-2.1 2.1-6.13.11-.26-62.39.01Zm170.41 221.15a3 3 0 0 0-1.2.55l-.8.72a70.415 70.415 0 0 0-3.26 3.23 57.343 57.343 0 0 0-4.57 5.43 30.97 30.97 0 0 0-1.25 1.86 17.408 17.408 0 0 0-1 1.83 15.824 15.824 0 0 0-1.21 3.22 9.296 9.296 0 0 0-.23 1.53l.06 1.91c.047.42.11.837.19 1.25a11.175 11.175 0 0 0 3.7 6.35l1.62 1.19c.858.521 1.77.947 2.72 1.27a15.55 15.55 0 0 0 2.86.7l2.08.19 2.47-.08a15.446 15.446 0 0 0 6.57-2.16 11.403 11.403 0 0 0 5.41-8.88v-2a11.15 11.15 0 0 0-.79-3.1 16.974 16.974 0 0 0-.77-1.68c-.327-.62-.68-1.23-1.06-1.83a41.851 41.851 0 0 0-2.86-3.88 63.196 63.196 0 0 0-2.51-2.85 72.454 72.454 0 0 0-3.8-3.76l-.53-.47a5.474 5.474 0 0 0-.56-.37l-.64-.19-.64.02Zm138.25 53a23.867 23.867 0 0 1 22.053 14.735 23.869 23.869 0 1 1-45.923 9.135 24.22 24.22 0 0 1 23.87-23.85v-.02Zm-108.87 84.1-69 58.09a22.124 22.124 0 0 1-14.07 5h167.17a22.439 22.439 0 0 1-14.15-5l-69.95-58.09Z" fill="#fff"/></g><defs><clipPath id="a"><path fill="#fff" d="M0 0h1024v1024H0z"/></clipPath></defs></svg>

<svg width="1024" height="1024" viewBox="0 0 1024 1024" fill="none" xmlns="http://www.w3.org/2000/svg">
<g clip-path="url(#clip0_2_2217)">
<path d="M512 1024C794.77 1024 1024 794.77 1024 512C1024 229.23 794.77 0 512 0C229.23 0 0 229.23 0 512C0 794.77 229.23 1024 512 1024Z" fill="#54688C"/>
<path d="M508.51 259.09H508.25C502.358 259.683 496.693 261.678 491.73 264.91C484.09 269.82 478.26 277.15 473.96 285.11C473.247 286.443 472.58 287.793 471.96 289.16C470.233 292.937 468.743 296.817 467.5 300.78C466.64 303.533 465.887 306.317 465.24 309.13C464.427 312.67 463.76 316.24 463.24 319.84C462.573 324.407 462.093 328.996 461.8 333.61C461.62 336.536 461.503 339.467 461.45 342.4C461.363 345.773 461.427 349.143 461.64 352.51C462.255 360.386 463.479 368.203 465.3 375.89C467.566 385.572 470.36 395.123 473.67 404.5C477.803 416.273 482.43 427.857 487.55 439.25C493.85 453.343 500.667 467.177 508 480.75L508.55 481.75L508.51 259.09ZM537.13 259.68L539.91 261.68C548.19 268.19 554.31 277.12 558.69 286.68C560.542 290.741 562.122 294.92 563.42 299.19C566.747 310.491 568.73 322.145 569.33 333.91C569.503 336.83 569.61 339.75 569.65 342.67C569.774 347.453 569.59 352.24 569.1 357C568.504 362.711 567.599 368.386 566.39 374C565 380.55 563.3 387 561.39 393.43C558.81 401.983 555.903 410.43 552.67 418.77C549.743 426.357 546.63 433.867 543.33 441.3C537.383 454.633 530.97 467.75 524.09 480.65C534.21 470.217 543.947 459.427 553.3 448.28C561.907 438.067 570.027 427.47 577.66 416.49C583.868 407.591 589.51 398.309 594.55 388.7C596.803 384.36 598.857 379.923 600.71 375.39C602.199 371.748 603.494 368.029 604.59 364.25C605.955 359.634 606.856 354.894 607.28 350.1C607.434 347.957 607.477 345.807 607.41 343.66C607.363 341.353 607.247 339.05 607.06 336.75C606.376 327.958 604.447 319.309 601.33 311.06C595.566 295.977 585.271 283.051 571.86 274.06C565.705 269.919 559.07 266.541 552.1 264L537.13 259.68ZM341.27 303.52C314.548 303.533 288.925 314.154 270.03 333.049C251.134 351.944 240.513 377.568 240.5 404.29V624.14C240.49 639.056 243.798 653.787 250.183 667.267C256.569 680.747 265.872 692.639 277.42 702.08C286.14 703.08 299.6 706.08 319.93 689.55L421 600.65C422.99 599.037 425.473 598.156 428.035 598.156C430.597 598.156 433.08 599.037 435.07 600.65L507.81 660.46L533.64 639.23C535.63 637.617 538.113 636.736 540.675 636.736C543.237 636.736 545.72 637.617 547.71 639.23L627.21 704.59C636.8 711.85 649.21 720.43 677.84 724.91H682.76C709.477 724.889 735.092 714.264 753.981 695.37C772.87 676.475 783.487 650.856 783.5 624.14V404.29C783.487 377.568 772.866 351.944 753.971 333.049C735.075 314.154 709.452 303.533 682.73 303.52H620.21L621.39 306.52L622.29 309.18L624.92 318.77C624.97 318.941 625.01 319.114 625.04 319.29L627.09 332.29L627.5 336.79L627.83 342.58V343.78L627.71 350.25L627.6 351.97L627.25 354.76L625.48 365L625.05 366.89L620.89 379.89C620.85 380.017 620.803 380.14 620.75 380.26L616.89 389.61L616.75 389.92L611.7 400L602.88 415.36L598.2 422.52L592.58 430.92L588.58 436.35L580.73 446.84L575.39 453.56L567.49 463.18L562 469.66L553.49 479.24L548.01 485.24L532.18 501.77L528.5 505.41L530.67 507.26C533.747 510.089 536.636 513.116 539.32 516.32C540.127 517.3 540.907 518.3 541.66 519.32C542.413 520.34 543.187 521.46 543.98 522.68C544.733 523.867 545.44 525.083 546.1 526.33C546.8 527.659 547.427 529.024 547.98 530.42C549.262 533.621 550.084 536.988 550.42 540.42L550.56 543.02C550.643 547.997 549.732 552.94 547.88 557.56C545.504 563.473 541.601 568.649 536.57 572.56C534.811 573.931 532.934 575.142 530.96 576.18C526.392 578.561 521.408 580.042 516.28 580.54C513.193 580.852 510.081 580.825 507 580.46C504.099 580.119 501.243 579.468 498.48 578.52C495.845 577.609 493.317 576.416 490.94 574.96C488.153 573.25 485.607 571.175 483.37 568.79C480.295 565.517 477.86 561.698 476.19 557.53C474.546 553.418 473.646 549.047 473.53 544.62V541.48C473.768 537.843 474.553 534.262 475.86 530.86C476.37 529.528 476.948 528.223 477.59 526.95C478.85 524.512 480.29 522.172 481.9 519.95C482.953 518.49 484.063 517.07 485.23 515.69C487.658 512.845 490.245 510.141 492.98 507.59L493.98 506.68L495.59 505.33L487.59 497.33L482.73 492.33L470.44 479.11L467.38 475.76L452.47 458.33L448.25 453.1L435.19 436.1L433.74 434.1L423.74 419.32L420.99 414.87L413.8 402.53L411.6 398.53L405.38 385.4L404.21 382.4L400.63 372.4L399.26 367.65L398.2 363.26L397.31 358.5L396.61 353.21L396.33 349.83L396.21 344.06V342.85L396.38 339.4L397.62 326.82L398.01 324.61L400.79 312L401.45 309.9L403.55 303.77L403.66 303.51L341.27 303.52ZM511.68 524.67C511.244 524.762 510.834 524.95 510.48 525.22L509.68 525.94C508.56 526.98 507.473 528.056 506.42 529.17C504.786 530.884 503.26 532.697 501.85 534.6C501.41 535.206 500.993 535.827 500.6 536.46C500.207 537.093 499.873 537.703 499.6 538.29C499.081 539.316 498.675 540.396 498.39 541.51C498.271 542.013 498.194 542.524 498.16 543.04L498.22 544.95C498.267 545.37 498.33 545.787 498.41 546.2C498.892 548.673 500.196 550.911 502.11 552.55L503.73 553.74C504.588 554.261 505.5 554.687 506.45 555.01C507.379 555.333 508.337 555.568 509.31 555.71L511.39 555.9L513.86 555.82C516.185 555.606 518.432 554.867 520.43 553.66C521.971 552.714 523.265 551.416 524.205 549.872C525.146 548.328 525.706 546.583 525.84 544.78V542.78C525.727 541.714 525.461 540.67 525.05 539.68C524.824 539.106 524.567 538.546 524.28 538C523.953 537.38 523.6 536.77 523.22 536.17C522.342 534.823 521.387 533.527 520.36 532.29C519.553 531.316 518.717 530.367 517.85 529.44C516.63 528.14 515.363 526.887 514.05 525.68L513.52 525.21C513.341 525.075 513.154 524.952 512.96 524.84L512.32 524.65L511.68 524.67ZM649.93 577.67C654.651 577.67 659.266 579.07 663.191 581.693C667.117 584.316 670.176 588.044 671.983 592.405C673.79 596.767 674.262 601.566 673.341 606.197C672.42 610.827 670.147 615.08 666.809 618.418C663.47 621.757 659.217 624.03 654.587 624.951C649.956 625.872 645.157 625.4 640.795 623.593C636.434 621.786 632.706 618.727 630.083 614.801C627.46 610.876 626.06 606.261 626.06 601.54C626.156 595.241 628.702 589.227 633.158 584.774C637.615 580.321 643.631 577.78 649.93 577.69V577.67ZM541.06 661.77L472.06 719.86C468.091 723.107 463.118 724.874 457.99 724.86H625.16C620.009 724.867 615.013 723.101 611.01 719.86L541.06 661.77Z" fill="white"/>
</g>
<defs>
<clipPath id="clip0_2_2217">
<rect width="1024" height="1024" fill="white"/>
</clipPath>
</defs>
</svg>
